X:678
T:Anglais
T:efter Alfred Petersson, Nättraby, Blekinge (SvL, Band 18, nr 286)
S:Svenska Låtar Blekinge nr 286
O:Nättraby, Blekinge
N:Svenska Låtar, Band 18 nr 286
R:Anglais
C:Alfred Petersson
M:2/4
L:1/16
Q:1/4=100
Z:Konverterad till abc-format av  Olle Paulsson 05-01-03
K:Bb
(Bd)|f2fd B2BF|D2DF B2Bd|f2fe c2cB|AcFA B2:|
|:e2|defg f2bf|d2fd B2dB|ABcd c2ec|AcFA B2:|

(:musicend:)

(:music:)
